public/icons/fogComputing.svg

<svg width="87" height="75" viewBox="0 0 87 75" fill="none" xmlns="http://www.w3.org/2000/svg">
<path d="M70.6875 0C67.6893 0 65.25 2.46183 65.25 5.4878C65.25 8.51378 67.6893 10.9756 70.6875 10.9756C73.6857 10.9756 76.125 8.51378 76.125 5.4878C76.125 2.46183 73.6857 0 70.6875 0ZM5.4375 3.65854C4.43646 3.65854 3.625 4.4775 3.625 5.4878V25.6098H1.8125C0.811456 25.6098 0 26.4287 0 27.439C0 31.4737 3.25235 34.7561 7.25 34.7561H36.25C40.2477 34.7561 43.5 31.4737 43.5 27.439C43.5 26.4287 42.6885 25.6098 41.6875 25.6098H39.875V5.4878C39.875 4.4775 39.0635 3.65854 38.0625 3.65854H5.4375ZM70.6875 3.65854C71.6869 3.65854 72.5 4.47915 72.5 5.4878C72.5 6.49646 71.6869 7.31707 70.6875 7.31707C69.6881 7.31707 68.875 6.49646 68.875 5.4878C68.875 4.47915 69.6881 3.65854 70.6875 3.65854ZM7.25 7.31707H36.25V25.6098H7.25V7.31707ZM23.5721 10.9756C23.223 10.9735 22.8694 11.0727 22.5571 11.2829L17.1196 14.9414C16.2868 15.5017 16.0616 16.6375 16.6169 17.4781C17.1737 18.321 18.2999 18.5444 19.1304 17.9854L24.5679 14.3269C25.4007 13.7666 25.6259 12.6308 25.0706 11.7902C24.7236 11.2647 24.1539 10.9792 23.5721 10.9756ZM45.3125 10.9756C44.38 10.9756 43.5995 11.6919 43.5092 12.6252C43.4081 13.6276 44.239 14.6341 45.3125 14.6341H45.5207C46.5215 14.6341 47.3332 13.8152 47.3332 12.8049C47.3332 11.7946 46.5215 10.9756 45.5207 10.9756H45.3125ZM51.3536 10.9756C50.3547 10.9756 49.5411 11.797 49.5411 12.8049C49.5411 13.8128 50.3547 14.6341 51.3536 14.6341H51.5617C52.5624 14.6341 53.3742 13.8128 53.3742 12.8049C53.3742 11.797 52.5624 10.9756 51.5617 10.9756H51.3536ZM57.3964 10.9756C56.3957 10.9756 55.5839 11.797 55.5839 12.8049C55.5839 13.8128 56.3957 14.6341 57.3964 14.6341H57.6032C58.6038 14.6341 59.4157 13.8128 59.4157 12.8049C59.4157 11.797 58.6038 10.9756 57.6032 10.9756H57.3964ZM63.4375 10.9756C62.505 10.9756 61.7245 11.6919 61.6342 12.6252C61.6208 12.7585 61.6265 12.8401 61.625 12.9817C61.625 13.9919 62.4366 14.8106 63.4375 14.8106C64.4384 14.8106 65.25 13.9917 65.25 12.9814C65.2486 12.8407 65.2542 12.7587 65.2408 12.6252C65.1509 11.6941 64.3722 10.9756 63.4375 10.9756ZM63.4375 16.0976C62.4388 16.0976 61.625 16.9189 61.625 17.9268V18.1026C61.625 19.1124 62.4388 19.9319 63.4375 19.9319C64.4362 19.9319 65.25 19.1124 65.25 18.1026V17.9268C65.25 16.9189 64.4362 16.0976 63.4375 16.0976ZM20.8533 18.2927C20.5042 18.2905 20.1507 18.3898 19.8384 18.5999L17.1196 20.4292C16.2868 20.9895 16.0616 22.1253 16.6169 22.9659C17.1737 23.8088 18.2999 24.0323 19.1304 23.4732L21.8491 21.644C22.682 21.0837 22.9072 19.9478 22.3518 19.1073C22.0049 18.5818 21.4352 18.2962 20.8533 18.2927ZM78.8438 20.122C75.3458 20.122 72.5 22.9941 72.5 26.5244C72.5 30.0547 75.3458 32.9268 78.8438 32.9268C82.3417 32.9268 85.1875 30.0547 85.1875 26.5244C85.1875 22.9941 82.3417 20.122 78.8438 20.122ZM63.4375 21.2195C62.4388 21.2195 61.625 22.0409 61.625 23.0488V23.2246C61.625 24.2343 62.4388 25.0538 63.4375 25.0538C64.4362 25.0538 65.25 24.2343 65.25 23.2246V23.0488C65.25 22.0409 64.4362 21.2195 63.4375 21.2195ZM78.8438 23.7805C80.3429 23.7805 81.5625 25.0114 81.5625 26.5244C81.5625 28.0374 80.3429 29.2683 78.8438 29.2683C77.3446 29.2683 76.125 28.0374 76.125 26.5244C76.125 25.0114 77.3446 23.7805 78.8438 23.7805ZM63.4375 26.3415C62.4388 26.3415 61.625 27.1628 61.625 28.1707V28.3483C61.625 29.3562 62.4388 30.1758 63.4375 30.1758C64.4362 30.1758 65.25 29.3562 65.25 28.3483V28.1707C65.25 27.1628 64.4362 26.3415 63.4375 26.3415ZM4.1114 29.2683H39.3886C38.7609 30.3611 37.5891 31.0976 36.25 31.0976H7.25C5.91093 31.0976 4.73907 30.3611 4.1114 29.2683ZM63.4375 31.4634C62.4388 31.4634 61.625 32.2848 61.625 33.2927V33.4703C61.625 34.4782 62.4388 35.2995 63.4375 35.2995C64.4362 35.2995 65.25 34.4782 65.25 33.4703V33.2927C65.25 32.2848 64.4362 31.4634 63.4375 31.4634ZM63.4375 36.5854C62.9608 36.5854 62.4931 36.781 62.156 37.1213C61.4493 37.8343 61.4491 38.9948 62.156 39.708C62.4931 40.0482 62.9608 40.2439 63.4375 40.2439C64.4358 40.2439 65.25 39.4227 65.25 38.4146C65.25 37.4071 64.4367 36.5854 63.4375 36.5854ZM19.9375 40.2446C19.4735 40.2447 19.0094 40.4231 18.656 40.7798C18.3189 41.1201 18.125 41.5921 18.125 42.0732C18.125 43.0807 18.9383 43.9024 19.9375 43.9024C20.4142 43.9024 20.8819 43.7066 21.219 43.3662C21.9224 42.6564 21.9297 41.4973 21.219 40.7798C20.8656 40.4231 20.4015 40.2446 19.9375 40.2446ZM48.9375 43.9024C47.9366 43.9024 47.125 44.7216 47.125 45.7317V65.8537H45.3125C44.3116 65.8537 43.5 66.6728 43.5 67.6829C43.5 71.7176 46.7523 75 50.75 75H79.75C83.7477 75 87 71.7176 87 67.6829C87 66.6728 86.1884 65.8537 85.1875 65.8537H83.375V45.7317C83.375 44.7216 82.5634 43.9024 81.5625 43.9024H48.9375ZM19.9375 45.1883C18.9388 45.1883 18.125 46.0094 18.125 47.0176V47.1951C18.125 48.203 18.9388 49.0244 19.9375 49.0244C20.9362 49.0244 21.75 48.203 21.75 47.1951V47.0176C21.75 46.0096 20.9362 45.1883 19.9375 45.1883ZM50.75 47.561H79.75V65.8537H50.75V47.561ZM19.9375 50.312C18.9388 50.312 18.125 51.1314 18.125 52.1395V52.3171C18.125 53.325 18.9388 54.1463 19.9375 54.1463C20.9362 54.1463 21.75 53.325 21.75 52.3171V52.1395C21.75 51.1316 20.9362 50.312 19.9375 50.312ZM67.0721 51.2195C66.723 51.2174 66.3694 51.3166 66.0571 51.5268L60.6196 55.1853C59.7866 55.7456 59.5616 56.8814 60.1169 57.722C60.6739 58.5653 61.7999 58.7882 62.6304 58.2293L68.0679 54.5708C68.9009 54.0105 69.1259 52.8747 68.5706 52.0341C68.2236 51.5087 67.6539 51.2231 67.0721 51.2195ZM19.9375 55.4322C18.9388 55.4322 18.125 56.2533 18.125 57.2615V57.439C18.125 58.447 18.9388 59.2683 19.9375 59.2683C20.9362 59.2683 21.75 58.447 21.75 57.439V57.2615C21.75 56.2535 20.9362 55.4322 19.9375 55.4322ZM64.3533 58.5366C64.0042 58.5345 63.6508 58.6337 63.3384 58.8438L60.6196 60.6731C59.7866 61.2334 59.5616 62.3692 60.1169 63.2098C60.6739 64.0531 61.7999 64.276 62.6304 63.7171L65.3491 61.8879C66.1822 61.3276 66.4072 60.1917 65.8518 59.3512C65.5048 58.8257 64.9351 58.5401 64.3533 58.5366ZM19.9375 60.5541C18.9388 60.5541 18.125 61.3753 18.125 62.3834V62.561C18.125 63.5689 18.9388 64.3902 19.9375 64.3902C20.9362 64.3902 21.75 63.5689 21.75 62.561V62.3834C21.75 61.3755 20.9362 60.5541 19.9375 60.5541ZM9.0625 64.0244C6.06426 64.0244 3.625 66.4862 3.625 69.5122C3.625 72.5382 6.06426 75 9.0625 75C12.0607 75 14.5 72.5382 14.5 69.5122C14.5 66.4862 12.0607 64.0244 9.0625 64.0244ZM19.9375 65.6768C18.9365 65.6768 18.125 66.496 18.125 67.5061C18.1265 67.6471 18.1208 67.7291 18.1342 67.8626C18.2241 68.7921 19.001 69.5122 19.9375 69.5122C20.8784 69.5122 21.6514 68.7886 21.7408 67.8626C21.7542 67.7291 21.7486 67.6477 21.75 67.5061C21.75 66.496 20.9385 65.6768 19.9375 65.6768ZM25.7701 65.8537C24.7714 65.8537 23.9576 66.675 23.9576 67.6829C23.9576 68.6909 24.7714 69.5122 25.7701 69.5122H25.9786C26.9791 69.5122 27.7911 68.6909 27.7911 67.6829C27.7911 66.675 26.9791 65.8537 25.9786 65.8537H25.7701ZM31.8129 65.8537C30.8124 65.8537 30.0004 66.675 30.0004 67.6829C30.0004 68.6909 30.8124 69.5122 31.8129 69.5122H32.0214C33.0201 69.5122 33.8339 68.6909 33.8339 67.6829C33.8339 66.675 33.0201 65.8537 32.0214 65.8537H31.8129ZM37.854 65.8537C36.853 65.8537 36.0415 66.6728 36.0415 67.6829C36.0415 68.6931 36.853 69.5122 37.854 69.5122H38.0625C39.0672 69.5122 39.875 68.6887 39.875 67.6829C39.875 67.6227 39.1635 65.9537 38.2406 65.8629C38.1057 65.849 38.0256 65.8553 37.854 65.8537ZM9.0625 67.6829C10.0619 67.6829 10.875 68.5035 10.875 69.5122C10.875 70.5209 10.0619 71.3415 9.0625 71.3415C8.06309 71.3415 7.25 70.5209 7.25 69.5122C7.25 68.5035 8.06309 67.6829 9.0625 67.6829ZM47.6114 69.5122H82.8886C82.2607 70.605 81.0891 71.3415 79.75 71.3415H50.75C49.4109 71.3415 48.2391 70.605 47.6114 69.5122Z" fill="#FBFBFB" fill-opacity="0.8"/>
</svg>

<svg xmlns="http://www.w3.org/2000/svg" fill="none" width="87" height="75" viewBox="0 0 87 75"><path d="M70.688 0c-2.999 0-5.438 2.462-5.438 5.488 0 3.026 2.44 5.488 5.438 5.488 2.998 0 5.437-2.462 5.437-5.488 0-3.026-2.44-5.488-5.438-5.488zM5.438 3.659a1.82 1.82 0 0 0-1.813 1.829V25.61H1.812A1.82 1.82 0 0 0 0 27.439c0 4.035 3.252 7.317 7.25 7.317h29c3.998 0 7.25-3.282 7.25-7.317a1.82 1.82 0 0 0-1.813-1.83h-1.812V5.489a1.82 1.82 0 0 0-1.813-1.83H5.438zm65.25 0c.999 0 1.812.82 1.812 1.829 0 1.008-.813 1.83-1.813 1.83a1.824 1.824 0 0 1-1.812-1.83c0-1.009.813-1.83 1.813-1.83zM7.25 7.317h29V25.61h-29V7.317zm16.322 3.659a1.793 1.793 0 0 0-1.015.307L17.12 14.94a1.84 1.84 0 0 0-.503 2.537 1.802 1.802 0 0 0 2.513.507l5.438-3.658a1.84 1.84 0 0 0 .503-2.537 1.806 1.806 0 0 0-1.499-.814zm21.74 0a1.82 1.82 0 0 0-1.803 1.65c-.1 1.002.73 2.008 1.803 2.008h.209c1 0 1.812-.819 1.812-1.83a1.82 1.82 0 0 0-1.812-1.828h-.209zm6.042 0c-1 0-1.813.821-1.813 1.829s.814 1.83 1.813 1.83h.208c1 0 1.812-.822 1.812-1.83s-.812-1.83-1.812-1.83h-.208zm6.042 0c-1 0-1.812.821-1.812 1.829s.812 1.83 1.812 1.83h.207c1 0 1.813-.822 1.813-1.83s-.812-1.83-1.813-1.83h-.207zm6.041 0a1.82 1.82 0 0 0-1.803 1.65c-.013.133-.008.214-.009.356a1.82 1.82 0 0 0 1.813 1.829c1 0 1.812-.82 1.812-1.83-.001-.14.004-.222-.01-.356a1.82 1.82 0 0 0-1.802-1.65zm0 5.122c-.998 0-1.812.82-1.812 1.829v.176c0 1.01.814 1.829 1.813 1.829.998 0 1.812-.82 1.812-1.83v-.175c0-1.008-.814-1.83-1.813-1.83zm-42.584 2.195a1.792 1.792 0 0 0-1.015.307l-2.718 1.83a1.84 1.84 0 0 0-.503 2.536 1.802 1.802 0 0 0 2.513.507l2.72-1.829a1.84 1.84 0 0 0 .502-2.537 1.805 1.805 0 0 0-1.499-.814zm57.99 1.829c-3.497 0-6.343 2.872-6.343 6.402 0 3.53 2.846 6.403 6.344 6.403s6.344-2.872 6.344-6.403c0-3.53-2.846-6.402-6.344-6.402zM63.438 21.22c-.998 0-1.812.82-1.812 1.829v.176c0 1.01.814 1.829 1.813 1.829.998 0 1.812-.82 1.812-1.83v-.175c0-1.008-.814-1.83-1.813-1.83zm15.407 2.56c1.499 0 2.719 1.231 2.719 2.744 0 1.513-1.22 2.744-2.72 2.744-1.498 0-2.718-1.23-2.718-2.744 0-1.513 1.22-2.744 2.719-2.744zm-15.406 2.561c-1 0-1.813.822-1.813 1.83v.177c0 1.008.814 1.828 1.813 1.828.998 0 1.812-.82 1.812-1.828v-.177c0-1.008-.814-1.83-1.813-1.83zM4.11 29.268h35.28a3.621 3.621 0 0 1-3.139 1.83h-29c-1.34 0-2.51-.737-3.139-1.83zm59.327 2.195c-1 0-1.813.822-1.813 1.83v.177c0 1.008.814 1.83 1.813 1.83.998 0 1.812-.822 1.812-1.83v-.177c0-1.008-.814-1.83-1.813-1.83zm0 5.122a1.82 1.82 0 0 0-1.282.536 1.843 1.843 0 0 0 0 2.587c.337.34.805.536 1.282.536.998 0 1.812-.821 1.812-1.83a1.824 1.824 0 0 0-1.813-1.829zm-43.5 3.66c-.464 0-.929.178-1.282.535-.337.34-.531.812-.531 1.293 0 1.008.813 1.83 1.813 1.83.476 0 .944-.196 1.281-.537.703-.71.71-1.869 0-2.586a1.798 1.798 0 0 0-1.282-.535zm29 3.657c-1.001 0-1.813.82-1.813 1.83v20.122h-1.813c-1 0-1.812.819-1.812 1.829 0 4.035 3.252 7.317 7.25 7.317h29c3.998 0 7.25-3.282 7.25-7.317 0-1.01-.812-1.83-1.813-1.83h-1.812v-20.12c0-1.01-.812-1.83-1.813-1.83H48.938zm-29 1.286c-1 0-1.813.821-1.813 1.83v.177c0 1.008.814 1.83 1.813 1.83.998 0 1.812-.822 1.812-1.83v-.177c0-1.008-.814-1.83-1.813-1.83zm30.812 2.373h29v18.293h-29V47.56zm-30.813 2.751c-.998 0-1.812.82-1.812 1.828v.177c0 1.008.814 1.83 1.813 1.83.998 0 1.812-.822 1.812-1.83v-.178a1.822 1.822 0 0 0-1.813-1.827zm47.135.907a1.793 1.793 0 0 0-1.015.308l-5.437 3.658a1.84 1.84 0 0 0-.503 2.537 1.802 1.802 0 0 0 2.513.507l5.438-3.658a1.84 1.84 0 0 0 .503-2.537 1.806 1.806 0 0 0-1.499-.815zm-47.135 4.213c-.998 0-1.812.821-1.812 1.83v.177c0 1.008.814 1.83 1.813 1.83.998 0 1.812-.822 1.812-1.83v-.178a1.824 1.824 0 0 0-1.813-1.829zm44.416 3.105a1.793 1.793 0 0 0-1.015.307l-2.718 1.83a1.84 1.84 0 0 0-.503 2.536 1.802 1.802 0 0 0 2.513.507l2.72-1.83a1.84 1.84 0 0 0 .502-2.536 1.805 1.805 0 0 0-1.499-.814zm-44.415 2.017c-1 0-1.813.821-1.813 1.83v.177c0 1.008.814 1.83 1.813 1.83.998 0 1.812-.822 1.812-1.83v-.178a1.824 1.824 0 0 0-1.813-1.829zm-10.875 3.47c-2.999 0-5.438 2.462-5.438 5.488 0 3.026 2.44 5.488 5.438 5.488 2.998 0 5.437-2.462 5.437-5.488 0-3.026-2.44-5.488-5.438-5.488zm10.874 1.653c-1 0-1.812.819-1.812 1.83.002.14-.004.222.01.356.09.93.866 1.65 1.802 1.65a1.82 1.82 0 0 0 1.804-1.65c.013-.134.008-.215.009-.357 0-1.01-.811-1.83-1.813-1.83zm5.833.177c-.999 0-1.812.821-1.812 1.829s.813 1.83 1.812 1.83h.209c1 0 1.812-.822 1.812-1.83s-.812-1.83-1.812-1.83h-.209zm6.043 0c-1 0-1.813.821-1.813 1.829s.812 1.83 1.813 1.83h.208c1 0 1.813-.822 1.813-1.83s-.814-1.83-1.813-1.83h-.208zm6.041 0c-1.001 0-1.813.819-1.813 1.829s.812 1.83 1.813 1.83h.209a1.821 1.821 0 0 0 1.812-1.83c0-.06-.712-1.73-1.634-1.82-.135-.014-.215-.008-.387-.01zm-28.79 1.829c.999 0 1.812.82 1.812 1.83a1.822 1.822 0 0 1-1.813 1.828c-.999 0-1.812-.82-1.812-1.829 0-1.008.813-1.83 1.813-1.83zm38.548 1.83H82.89a3.622 3.622 0 0 1-3.139 1.828h-29c-1.34 0-2.51-.736-3.139-1.829z" fill="#FBFBFB" fill-opacity=".8"/></svg>
